img/logo-blue.svg

<svg width="283" height="42" viewBox="0 0 283 42" fill="none" xmlns="http://www.w3.org/2000/svg">
<path d="M71.507 15.0497H73.217L78.765 25.4047L84.237 15.0497H85.947L86.65 29.4897H84.997L84.465 17.6147L79.487 27.0387H77.967L72.97 17.7667L72.457 29.4897H70.804L71.507 15.0497ZM95.2839 15.0497H97.1649L103.036 29.4897H101.193L99.4829 25.1197H92.8709L91.1609 29.4897H89.4129L95.2839 15.0497ZM98.9129 23.6947L96.1769 16.7027L93.4409 23.6947H98.9129ZM107.784 16.5127H102.844V15.0497H114.434V16.5127H109.494V29.4897H107.784V16.5127ZM126.165 27.8367C125.747 28.4574 125.158 28.9387 124.398 29.2807C123.638 29.6227 122.732 29.7937 121.681 29.7937C121.136 29.7937 120.579 29.7431 120.009 29.6417C119.439 29.5404 118.894 29.4074 118.375 29.2427C117.868 29.0654 117.438 28.8627 117.083 28.6347L117.292 27.0577C117.9 27.4251 118.597 27.7227 119.382 27.9507C120.167 28.1787 120.908 28.2927 121.605 28.2927C122.669 28.2927 123.511 28.0647 124.132 27.6087C124.753 27.1527 125.063 26.5321 125.063 25.7467C125.063 25.2907 124.962 24.9044 124.759 24.5877C124.569 24.2711 124.227 23.9797 123.733 23.7137C123.239 23.4477 122.549 23.1691 121.662 22.8777C120.585 22.5231 119.73 22.1557 119.097 21.7757C118.464 21.3957 118.014 20.9587 117.748 20.4647C117.482 19.9707 117.349 19.3754 117.349 18.6787C117.349 17.8807 117.545 17.1904 117.938 16.6077C118.343 16.0124 118.901 15.5564 119.61 15.2397C120.319 14.9104 121.149 14.7457 122.099 14.7457C122.796 14.7457 123.505 14.8407 124.227 15.0307C124.949 15.2081 125.595 15.4614 126.165 15.7907L125.88 17.2917C125.323 16.9624 124.708 16.7091 124.037 16.5317C123.366 16.3417 122.72 16.2467 122.099 16.2467C121.136 16.2467 120.383 16.4557 119.838 16.8737C119.293 17.2791 119.021 17.8427 119.021 18.5647C119.021 18.9954 119.11 19.3627 119.287 19.6667C119.464 19.9581 119.775 20.2304 120.218 20.4837C120.674 20.7244 121.301 20.9841 122.099 21.2627C123.264 21.6554 124.189 22.0544 124.873 22.4597C125.557 22.8651 126.045 23.3211 126.336 23.8277C126.64 24.3344 126.792 24.9297 126.792 25.6137C126.792 26.4624 126.583 27.2034 126.165 27.8367ZM130.782 15.0497H132.492V23.4097C132.492 24.9931 132.86 26.1964 133.594 27.0197C134.342 27.8304 135.431 28.2357 136.862 28.2357C138.294 28.2357 139.377 27.8304 140.111 27.0197C140.859 26.1964 141.232 24.9931 141.232 23.4097V15.0497H142.942V23.5617C142.942 25.5251 142.398 27.0577 141.308 28.1597C140.232 29.2491 138.731 29.7937 136.805 29.7937C134.905 29.7937 133.423 29.2491 132.359 28.1597C131.308 27.0577 130.782 25.5251 130.782 23.5617V15.0497ZM152.743 23.2767V29.4897H151.033V23.2577L145.599 15.0497H147.518L151.945 21.9467L156.391 15.0497H158.196L152.743 23.2767ZM163.305 15.0497H165.186L171.057 29.4897H169.214L167.504 25.1197H160.892L159.182 29.4897H157.434L163.305 15.0497ZM166.934 23.6947L164.198 16.7027L161.462 23.6947H166.934ZM174.508 15.0497H176.218L181.766 25.4047L187.238 15.0497H188.948L189.651 29.4897H187.998L187.466 17.6147L182.488 27.0387H180.968L175.971 17.7667L175.458 29.4897H173.805L174.508 15.0497ZM198.285 15.0497H200.166L206.037 29.4897H204.194L202.484 25.1197H195.872L194.162 29.4897H192.414L198.285 15.0497ZM201.914 23.6947L199.178 16.7027L196.442 23.6947H201.914ZM213.318 19.3437C213.698 18.4191 214.23 17.6211 214.914 16.9497C215.61 16.2784 216.427 15.7591 217.365 15.3917C218.315 15.0244 219.36 14.8407 220.5 14.8407C221.247 14.8407 222.026 14.9484 222.837 15.1637C223.647 15.3791 224.344 15.6704 224.927 16.0377L224.623 17.5767C223.787 17.1587 223.033 16.8611 222.362 16.6837C221.703 16.4937 221.019 16.3987 220.31 16.3987C219.182 16.3987 218.182 16.6521 217.308 17.1587C216.446 17.6527 215.775 18.3431 215.294 19.2297C214.812 20.1037 214.572 21.1234 214.572 22.2887C214.572 23.4794 214.812 24.5117 215.294 25.3857C215.775 26.2597 216.446 26.9374 217.308 27.4187C218.182 27.9001 219.208 28.1407 220.386 28.1407C221.082 28.1407 221.817 28.0457 222.59 27.8557C223.362 27.6657 224.116 27.3997 224.851 27.0577L225.041 28.5777C223.546 29.3251 221.963 29.6987 220.291 29.6987C219.189 29.6987 218.175 29.5214 217.251 29.1667C216.339 28.7994 215.547 28.2927 214.876 27.6467C214.204 26.9881 213.685 26.2154 213.318 25.3287C212.95 24.4294 212.767 23.4477 212.767 22.3837C212.767 21.2817 212.95 20.2684 213.318 19.3437ZM228.739 15.0497H230.449V28.0267H237.536V29.4897H228.739V15.0497ZM240.662 15.0497H242.372V29.4897H240.662V15.0497ZM246.833 15.0497H248.486L257.302 27.0007V15.0497H258.879V29.4897H257.226L248.41 17.5387V29.4897H246.833V15.0497ZM263.339 15.0497H265.049V29.4897H263.339V15.0497ZM269.112 19.3437C269.492 18.4191 270.024 17.6211 270.708 16.9497C271.404 16.2784 272.221 15.7591 273.159 15.3917C274.109 15.0244 275.154 14.8407 276.294 14.8407C277.041 14.8407 277.82 14.9484 278.631 15.1637C279.441 15.3791 280.138 15.6704 280.721 16.0377L280.417 17.5767C279.581 17.1587 278.827 16.8611 278.156 16.6837C277.497 16.4937 276.813 16.3987 276.104 16.3987C274.976 16.3987 273.976 16.6521 273.102 17.1587C272.24 17.6527 271.569 18.3431 271.088 19.2297C270.606 20.1037 270.366 21.1234 270.366 22.2887C270.366 23.4794 270.606 24.5117 271.088 25.3857C271.569 26.2597 272.24 26.9374 273.102 27.4187C273.976 27.9001 275.002 28.1407 276.18 28.1407C276.876 28.1407 277.611 28.0457 278.384 27.8557C279.156 27.6657 279.91 27.3997 280.645 27.0577L280.835 28.5777C279.34 29.3251 277.757 29.6987 276.085 29.6987C274.983 29.6987 273.969 29.5214 273.045 29.1667C272.133 28.7994 271.341 28.2927 270.67 27.6467C269.998 26.9881 269.479 26.2154 269.112 25.3287C268.744 24.4294 268.561 23.4477 268.561 22.3837C268.561 21.2817 268.744 20.2684 269.112 19.3437Z" fill="#19BBF0"/>
<path d="M29.3319 21.0785C29.3319 26.0707 25.27 30.1373 20.2731 30.1373C15.2762 30.1373 11.2142 26.0753 11.2142 21.0785C11.2142 16.0816 15.2762 12.0196 20.2731 12.0196V0.800781C9.0957 0.800781 0 9.89649 0 21.0738C0 32.2512 9.0957 41.3469 20.2731 41.3469C31.4504 41.3469 40.5461 32.2512 40.5461 21.0739H29.3319V21.0785Z" fill="#19BBF0"/>
<path d="M39.0399 0.657925C27.8626 0.45068 18.6011 9.38059 18.3984 20.558L29.6126 20.7652C29.7048 15.8282 33.7483 11.8721 38.6669 11.8721C38.7222 11.8721 38.7774 11.8721 38.8373 11.8721C43.8296 11.9642 47.8179 16.0999 47.7258 21.0922C47.6337 26.0845 43.498 30.0774 38.5057 29.9806L38.2985 41.1948C38.4228 41.1948 38.5518 41.1948 38.6761 41.1948C49.6831 41.1948 58.7373 32.3432 58.9399 21.2948C59.1472 10.1175 50.2173 0.855957 39.0399 0.65332L39.0399 0.657925Z" fill="#19BBF0"/>
</svg>

<svg xmlns="http://www.w3.org/2000/svg" width="283" height="42" fill="none"><path fill="#19BBF0" d="M71.507 15.05h1.71l5.548 10.355 5.472-10.355h1.71l.703 14.44h-1.653l-.532-11.875-4.978 9.424h-1.52l-4.997-9.272-.513 11.723h-1.653zm23.777 0h1.88l5.872 14.44h-1.843l-1.71-4.37H92.87l-1.71 4.37h-1.748zm3.629 8.645-2.736-6.992-2.736 6.992zm8.871-7.182h-4.94V15.05h11.59v1.463h-4.94V29.49h-1.71zm18.381 11.324q-.627.93-1.767 1.444t-2.717.513q-.817 0-1.672-.152a13 13 0 0 1-1.634-.4 6 6 0 0 1-1.292-.607l.209-1.577a8.7 8.7 0 0 0 2.09.893q1.177.342 2.223.342 1.596 0 2.527-.684t.931-1.862q0-.684-.304-1.16-.285-.474-1.026-.873-.74-.4-2.071-.836-1.616-.532-2.565-1.102-.95-.57-1.349-1.311-.399-.742-.399-1.786 0-1.198.589-2.071.608-.894 1.672-1.368 1.064-.495 2.489-.494 1.045 0 2.128.285 1.083.265 1.938.76l-.285 1.5a7.2 7.2 0 0 0-1.843-.76 7.1 7.1 0 0 0-1.938-.284q-1.444 0-2.261.627-.817.608-.817 1.69 0 .647.266 1.103.266.436.931.817.684.36 1.881.779 1.748.588 2.774 1.197 1.026.608 1.463 1.368.456.76.456 1.786 0 1.273-.627 2.223m4.617-12.787h1.71v8.36q0 2.374 1.102 3.61 1.122 1.215 3.268 1.216 2.148 0 3.249-1.216 1.122-1.236 1.121-3.61v-8.36h1.71v8.512q0 2.945-1.634 4.598-1.614 1.634-4.503 1.634-2.85 0-4.446-1.634-1.577-1.653-1.577-4.598zm21.961 8.227v6.213h-1.71v-6.232l-5.434-8.208h1.919l4.427 6.897 4.446-6.897h1.805zm10.562-8.227h1.881l5.871 14.44h-1.843l-1.71-4.37h-6.612l-1.71 4.37h-1.748zm3.629 8.645-2.736-6.992-2.736 6.992zm7.574-8.645h1.71l5.548 10.355 5.472-10.355h1.71l.703 14.44h-1.653l-.532-11.875-4.978 9.424h-1.52l-4.997-9.272-.513 11.723h-1.653zm23.777 0h1.881l5.871 14.44h-1.843l-1.71-4.37h-6.612l-1.71 4.37h-1.748zm3.629 8.645-2.736-6.992-2.736 6.992zm11.404-4.351a7.1 7.1 0 0 1 1.596-2.394 7.4 7.4 0 0 1 2.451-1.558q1.425-.551 3.135-.551 1.12 0 2.337.323 1.215.322 2.09.874l-.304 1.539q-1.254-.627-2.261-.893a7.4 7.4 0 0 0-2.052-.285q-1.691 0-3.002.76a5.2 5.2 0 0 0-2.014 2.07q-.722 1.312-.722 3.06 0 1.785.722 3.097a5.1 5.1 0 0 0 2.014 2.033q1.311.722 3.078.722 1.044 0 2.204-.285a12.3 12.3 0 0 0 2.261-.798l.19 1.52a10.5 10.5 0 0 1-4.75 1.12q-1.654 0-3.04-.531a7.3 7.3 0 0 1-2.375-1.52 6.9 6.9 0 0 1-1.558-2.318q-.552-1.35-.551-2.945 0-1.654.551-3.04m15.421-4.294h1.71v12.977h7.087v1.463h-8.797zm11.923 0h1.71v14.44h-1.71zm6.171 0h1.653L257.302 27V15.05h1.577v14.44h-1.653l-8.816-11.951v11.95h-1.577zm16.506 0h1.71v14.44h-1.71zm5.773 4.294a7.1 7.1 0 0 1 1.596-2.394 7.4 7.4 0 0 1 2.451-1.558q1.425-.551 3.135-.551 1.12 0 2.337.323 1.215.322 2.09.874l-.304 1.539q-1.254-.627-2.261-.893a7.4 7.4 0 0 0-2.052-.285q-1.691 0-3.002.76a5.2 5.2 0 0 0-2.014 2.07q-.722 1.312-.722 3.06 0 1.785.722 3.097a5.1 5.1 0 0 0 2.014 2.033q1.311.722 3.078.722 1.044 0 2.204-.285a12.3 12.3 0 0 0 2.261-.798l.19 1.52a10.5 10.5 0 0 1-4.75 1.12q-1.653 0-3.04-.531a7.3 7.3 0 0 1-2.375-1.52 6.9 6.9 0 0 1-1.558-2.318q-.551-1.35-.551-2.945 0-1.654.551-3.04M29.332 21.079c0 4.992-4.062 9.058-9.059 9.058s-9.059-4.062-9.059-9.059 4.062-9.058 9.06-9.058V.8C9.095.8 0 9.897 0 21.075 0 32.25 9.096 41.347 20.273 41.347s20.273-9.096 20.273-20.273H29.332z"/><path fill="#19BBF0" d="M39.04.658C27.863.45 18.6 9.38 18.398 20.558l11.215.207c.092-4.937 4.135-8.893 9.054-8.893h.17c4.993.092 8.98 4.228 8.889 9.22s-4.228 8.985-9.22 8.889l-.208 11.214h.378c11.007 0 20.061-8.852 20.264-19.9C59.147 10.117 50.217.856 39.04.653z"/></svg>
